outputs/icons/communication/chat_message_read_round.svg

<svg xmlns="http://www.w3.org/2000/svg" width="1200" height="1200" fill="none"><path fill="#000" fill-rule="evenodd" d="M567.34 789.205c-18.87-19.125-18.88-49.86-.025-69.005l10.03-10.19c13.73-13.94 36.21-13.945 49.95-.015l368.67-374.451c19.24-19.546 50.76-19.559 70.02-.03 18.865 19.129 18.875 49.861.025 69.003L662.895 813.85c-19.58 19.88-51.635 19.89-71.225.03zm-240.046-79.21 368.671-374.451c19.24-19.546 50.76-19.559 70.02-.03 18.865 19.129 18.875 49.861.025 69.003L362.947 813.795c-19.597 19.9-51.696 19.89-71.278-.025L132.608 652.005c-18.821-19.14-18.798-49.845.052-68.955 19.273-19.545 50.816-19.51 70.046.075z"/></svg>

<svg width="1200" height="1200" viewBox="0 0 1200 1200" fill="none" xmlns="http://www.w3.org/2000/svg"><path fill-rule="evenodd" d="M567.34 789.205C548.47 770.08 548.46 739.345 567.315 720.2L577.345 710.01C591.075 696.07 613.555 696.065 627.295 709.995L995.965 335.544C1015.205 315.998 1046.725 315.985 1065.985 335.514C1084.85 354.643 1084.86 385.375 1066.01 404.517L662.895 813.85C643.315 833.73 611.26 833.74 591.67 813.88L567.34 789.205ZM327.294 709.995L695.965 335.544C715.205 315.998 746.725 315.985 765.985 335.514C784.85 354.643 784.86 385.375 766.01 404.517L362.947 813.795C343.35 833.695 311.251 833.685 291.669 813.77L132.608 652.005C113.787 632.865 113.81 602.16 132.66 583.05C151.933 563.505 183.476 563.54 202.706 583.125L327.294 709.995Z" fill="#1D1E23"/></svg>
